packages/core/src/svgs/tokens/branded/ATOM.svg

<svg width="24" height="24" viewBox="0 0 24 24" fill="none" xmlns="http://www.w3.org/2000/svg">
<path d="M12.0003 18.1934C12.8137 18.1934 13.6192 18.0332 14.3707 17.7219C15.122 17.4107 15.8049 16.9545 16.38 16.3793C16.9552 15.8042 17.4114 15.1213 17.7226 14.37C18.0339 13.6185 18.1941 12.813 18.1941 11.9996C18.1941 11.1863 18.0339 10.3809 17.7226 9.62944C17.4114 8.87798 16.9552 8.19519 16.38 7.62004C15.8049 7.0449 15.122 6.58867 14.3707 6.27741C13.6192 5.96614 12.8137 5.80594 12.0003 5.80594C10.3577 5.80594 8.7823 6.4585 7.62074 7.62004C6.4592 8.78159 5.80664 10.357 5.80664 11.9996C5.80664 13.6423 6.4592 15.2178 7.62074 16.3793C8.7823 17.5409 10.3577 18.1934 12.0003 18.1934Z" fill="#2C3154"/>
<path fill-rule="evenodd" clip-rule="evenodd" d="M14.3504 7.93643C14.2611 7.1035 14.1426 6.28768 13.9923 5.5411L13.9918 5.53964C13.7863 4.54991 13.5339 3.66928 13.2086 3.03816C12.8935 2.4139 12.4977 2 11.9997 2C11.5031 2 11.1005 2.41243 10.7839 3.03865C10.4664 3.66781 10.2071 4.54159 10.007 5.54159C9.85893 6.28866 9.74112 7.10414 9.65164 7.93685C8.91351 7.61566 8.16424 7.31967 7.40513 7.04944L7.4017 7.04797C6.44035 6.7236 5.55484 6.50492 4.8469 6.46577H4.84446C4.1473 6.43446 3.58956 6.56851 3.34005 6.99563L3.33859 6.99758C3.09103 7.43104 3.25248 7.98437 3.63066 8.57048L3.6336 8.57537L3.63703 8.58075C4.14434 9.29292 4.74123 9.93685 5.41295 10.4966C6.02773 11.0196 6.65994 11.5211 7.30844 12.0002C6.65975 12.4795 6.02734 12.9813 5.41238 13.5044L5.40945 13.5068C4.64673 14.1761 4.02099 14.8371 3.63254 15.4267L3.63107 15.4291C3.25289 16.0152 3.09144 16.5685 3.33948 17.002L3.503 16.9089L3.34095 17.0034C3.58997 17.431 4.15455 17.5646 4.84536 17.5333H4.85172L4.85808 17.5323C5.72923 17.4475 6.58597 17.2516 7.4075 16.9496C8.16649 16.6793 8.91562 16.3833 9.65363 16.0621C9.74375 16.863 9.86121 17.661 10.006 18.4546L10.0074 18.4604C10.2129 19.4501 10.4659 20.3307 10.7908 20.9619C11.1063 21.5862 11.5016 22 11.9997 22C12.4967 22 12.8989 21.5876 13.2154 20.9614C13.5329 20.3322 13.7923 19.458 13.9923 18.458C14.1402 17.711 14.2581 16.8954 14.3476 16.0625C15.0854 16.3836 15.8343 16.6794 16.593 16.9496C17.4143 17.2518 18.2709 17.4477 19.1419 17.5329L19.1483 17.5338H19.1546C19.8519 17.5651 20.4095 17.431 20.6591 17.004L20.4478 16.8807L20.6601 17.0015C20.908 16.568 20.7466 16.0147 20.3684 15.4286L20.3656 15.4237L20.3621 15.4188C19.8547 14.7068 19.2578 14.0631 18.5861 13.5034C17.9716 12.9806 17.3397 12.4791 16.6914 12C17.3403 11.5204 17.9729 11.0186 18.5881 10.4952L18.591 10.4927C19.3537 9.82338 19.9789 9.16246 20.3679 8.57292L20.3693 8.57097C20.7475 7.98437 20.9089 7.43104 20.6609 6.99758L20.66 6.99563C20.4104 6.56851 19.8458 6.43446 19.1555 6.46577H19.1492L19.1429 6.46675C18.2715 6.55194 17.4145 6.74808 16.593 7.05042C15.8352 7.32027 15.0873 7.6158 14.3504 7.93643ZM11.9997 2.48925C11.803 2.48925 11.5237 2.6595 11.2208 3.25931C10.9321 3.83172 10.6831 4.65559 10.4869 5.63699C10.3327 6.41519 10.2116 7.27177 10.1217 8.14546C10.7569 8.43289 11.3834 8.73911 12.0006 9.06373C12.6181 8.73894 13.2449 8.43257 13.8804 8.14501C13.7908 7.27162 13.6693 6.41535 13.5128 5.63846C13.3098 4.65999 13.0676 3.83172 12.7731 3.26077L12.7722 3.25931C12.4683 2.65754 12.1954 2.48925 11.9997 2.48925ZM13.9294 8.66014C13.4554 8.87741 12.9862 9.10533 12.5223 9.34373C12.7787 9.48411 13.0334 9.62771 13.2862 9.77452C13.5375 9.9187 13.7869 10.0661 14.0344 10.2164C14.01 9.7046 13.9753 9.18151 13.9294 8.66014ZM11.478 9.34421C11.0146 9.10607 10.5459 8.87838 10.0724 8.66131C10.0263 9.18219 9.99112 9.70488 9.96635 10.2165C10.2135 10.0665 10.4625 9.9195 10.7133 9.77544C10.9665 9.62852 11.2214 9.48475 11.478 9.34421ZM9.94226 10.8051C10.2771 10.5975 10.6156 10.3954 10.9574 10.1992C11.3013 9.99952 11.6495 9.80546 11.9997 9.61788C12.35 9.80546 12.6972 9.99907 13.0411 10.1986C13.3833 10.3951 13.723 10.5978 14.058 10.8056C14.0714 11.2172 14.0779 11.6178 14.0779 12C14.0779 12.383 14.0712 12.7837 14.0575 13.1951C13.7228 13.4027 13.3844 13.6047 13.0425 13.8009C12.6985 14.0006 12.3503 14.1947 11.9998 14.3824C11.6493 14.1947 11.302 14.0011 10.958 13.8014C10.6149 13.6044 10.2743 13.4012 9.93838 13.1928C9.92605 12.7958 9.92058 12.3985 9.92183 12.001C9.92183 11.6181 9.92857 11.2165 9.94226 10.8051ZM9.46286 10.5281C9.48991 9.85021 9.53539 9.14733 9.60033 8.44917C8.82666 8.10836 8.04043 7.79565 7.2432 7.51177C6.29799 7.19229 5.46237 6.99024 4.82147 6.95501C4.14534 6.92468 3.86109 7.07487 3.76325 7.24171C3.6649 7.4149 3.67714 7.73926 4.03868 8.30139C4.52106 8.97782 5.08832 9.58949 5.72655 10.1213L5.729 10.1228C6.37478 10.6724 7.04008 11.1977 7.72353 11.6982C8.29151 11.2911 8.87153 10.9009 9.46286 10.5281ZM8.14262 12.0002C8.5696 11.6972 9.0034 11.4039 9.4437 11.1203C9.43628 11.4213 9.43263 11.7153 9.43263 11.9995C9.43166 12.2926 9.43434 12.5854 9.44067 12.8782C9.00141 12.5953 8.56861 12.3026 8.14262 12.0002ZM7.72358 12.3024C7.04079 12.8024 6.37608 13.3273 5.73088 13.8762C4.98381 14.5318 4.39526 15.1581 4.04153 15.6952C3.67755 16.2594 3.66482 16.5852 3.76366 16.7583C3.8615 16.9246 4.15015 17.0749 4.81649 17.0455C5.64438 16.9641 6.4585 16.7775 7.2392 16.4903L7.24164 16.4893C8.03929 16.2052 8.8259 15.8925 9.59996 15.5515C9.53227 14.8591 9.48506 14.1648 9.45838 13.4694C8.86863 13.0976 8.29012 12.7083 7.72358 12.3024ZM10.123 15.8538C10.2137 16.6941 10.3351 17.5312 10.4869 18.3636C10.69 19.342 10.9321 20.1688 11.2257 20.7388L11.2272 20.7408C11.531 21.3425 11.8045 21.5108 12.0001 21.5108C12.1964 21.5108 12.4757 21.3405 12.7786 20.7408C13.0672 20.1684 13.3162 19.345 13.5124 18.363C13.6667 17.5847 13.7878 16.7278 13.8779 15.854C13.2431 15.5667 12.6169 15.2606 12 14.9362C11.3835 15.2605 10.7576 15.5665 10.123 15.8538ZM11.4781 14.6562C11.0143 14.8945 10.5452 15.1224 10.0714 15.3396C10.0231 14.821 9.98644 14.3012 9.96156 13.7809C10.2101 13.9318 10.4605 14.0798 10.7128 14.2246C10.9662 14.3717 11.2214 14.5155 11.4781 14.6562ZM12.5217 14.6563C12.9851 14.8943 13.4537 15.122 13.9271 15.339C13.9733 14.8183 14.0086 14.2955 14.0334 13.7839C13.7864 13.9338 13.5377 14.0807 13.2871 14.2246C13.0337 14.3717 12.7786 14.5155 12.5217 14.6563ZM14.5368 13.4724C14.5096 14.1502 14.464 14.8531 14.3989 15.5511C15.1732 15.8922 15.9601 16.2051 16.7579 16.4893L16.7603 16.4903C17.5411 16.7774 18.3553 16.9638 19.183 17.0455C19.8553 17.0749 20.1381 16.9246 20.2359 16.7583C20.3342 16.5852 20.322 16.2608 19.9604 15.6986C19.4779 15.0222 18.9105 14.4105 18.2721 13.8788L18.2701 13.8773C17.6245 13.3278 16.9593 12.8026 16.2761 12.3023C15.7081 12.7093 15.1281 13.0995 14.5368 13.4724ZM16.2765 11.6979C15.7086 11.2909 15.1287 10.9007 14.5376 10.5278C14.511 9.85021 14.4661 9.1469 14.4014 8.44801C15.175 8.10726 15.9611 7.79462 16.7583 7.51079L16.7608 7.5098C17.5415 7.22251 18.3555 7.03591 19.1835 6.95453C19.8498 6.92517 20.1384 7.07536 20.2362 7.24171C20.3351 7.41539 20.3218 7.74073 19.9584 8.30482C19.6047 8.842 19.0166 9.46871 18.2691 10.1243C17.6239 10.6732 16.9592 11.198 16.2765 11.6979ZM15.857 12.0002C15.4301 12.3032 14.9963 12.5966 14.556 12.88C14.5635 12.5788 14.5672 12.2845 14.5672 12C14.5672 11.7161 14.5636 11.4219 14.5563 11.1205C14.9965 11.404 15.4302 11.6974 15.857 12.0002Z" fill="#A3A9D0"/>
<path d="M11.9996 13.2384C12.3282 13.2384 12.6432 13.1079 12.8755 12.8756C13.1078 12.6433 13.2384 12.3283 13.2384 11.9997C13.2384 11.6712 13.1078 11.3561 12.8755 11.1238C12.6432 10.8915 12.3282 10.761 11.9996 10.761C11.6711 10.761 11.356 10.8915 11.1237 11.1238C10.8914 11.3561 10.7609 11.6712 10.7609 11.9997C10.7609 12.3283 10.8914 12.6433 11.1237 12.8756C11.356 13.1079 11.6711 13.2384 11.9996 13.2384ZM4.87682 10.761C4.99883 10.761 5.11964 10.7369 5.23236 10.6902C5.34507 10.6436 5.44749 10.5752 5.53376 10.4889C5.62004 10.4026 5.68848 10.3002 5.73517 10.1874C5.78185 10.0747 5.80588 9.95394 5.80588 9.83191C5.80588 9.7099 5.78185 9.58909 5.73517 9.47637C5.68848 9.36366 5.62004 9.26124 5.53376 9.17497C5.44749 9.08869 5.34507 9.02026 5.23236 8.97357C5.11964 8.92688 4.99883 8.90285 4.87682 8.90285C4.63041 8.90285 4.3941 9.00074 4.21988 9.17497C4.04564 9.34919 3.94775 9.58551 3.94775 9.83191C3.94775 10.0783 4.04564 10.3147 4.21988 10.4889C4.3941 10.6631 4.63041 10.761 4.87682 10.761ZM10.4512 19.4323C10.5758 19.4363 10.6998 19.4153 10.8161 19.3704C10.9323 19.3255 11.0383 19.2577 11.1279 19.1711C11.2174 19.0843 11.2887 18.9806 11.3372 18.8658C11.3858 18.7511 11.4109 18.6278 11.4109 18.5032C11.4109 18.3785 11.3858 18.2552 11.3372 18.1405C11.2887 18.0258 11.2174 17.922 11.1279 17.8352C11.0383 17.7486 10.9323 17.6808 10.8161 17.6359C10.6998 17.5911 10.5758 17.5701 10.4512 17.574C10.21 17.5819 9.98135 17.6833 9.81343 17.8566C9.64564 18.03 9.55179 18.2618 9.55179 18.5032C9.55179 18.7445 9.64564 18.9763 9.81343 19.1497C9.98135 19.3231 10.21 19.4244 10.4512 19.4323ZM16.6449 8.28347C16.8913 8.28347 17.1277 8.1856 17.3019 8.01136C17.4761 7.83713 17.5741 7.60081 17.5741 7.35441C17.5741 7.10801 17.4761 6.8717 17.3019 6.69747C17.1277 6.52323 16.8913 6.42535 16.6449 6.42535C16.3985 6.42535 16.1622 6.52323 15.988 6.69747C15.8138 6.8717 15.7158 7.10801 15.7158 7.35441C15.7158 7.60081 15.8138 7.83713 15.988 8.01136C16.1622 8.1856 16.3985 8.28347 16.6449 8.28347Z" fill="#F0F3FA"/>
</svg>

<svg xmlns="http://www.w3.org/2000/svg" width="24" height="24" fill="none" viewBox="0 0 24 24">
    <path fill="#2C3154" d="M12 18.193a6.194 6.194 0 1 0 0-12.387 6.194 6.194 0 0 0 0 12.387"/>
    <path fill="#A3A9D0" fill-rule="evenodd" d="M14.35 7.936a27 27 0 0 0-.358-2.395V5.54c-.206-.99-.458-1.87-.783-2.502C12.893 2.414 12.498 2 11.999 2c-.496 0-.899.412-1.215 1.039-.318.629-.577 1.503-.777 2.503a28 28 0 0 0-.355 2.395 35 35 0 0 0-2.247-.888l-.003-.001c-.962-.324-1.847-.543-2.555-.582h-.003c-.697-.032-1.254.103-1.504.53l-.001.002c-.248.433-.087.986.292 1.572l.003.005.003.006a10.2 10.2 0 0 0 1.776 1.916A35 35 0 0 0 7.308 12q-.972.72-1.896 1.504l-.003.003c-.762.67-1.388 1.33-1.776 1.92l-.002.002c-.378.586-.54 1.14-.292 1.573l.164-.093-.162.094c.249.428.814.562 1.504.53h.013a10.3 10.3 0 0 0 2.55-.583 35 35 0 0 0 2.246-.888q.135 1.202.352 2.393l.001.005c.206.99.459 1.87.784 2.502C11.106 21.586 11.5 22 12 22c.497 0 .899-.412 1.215-1.039.318-.629.577-1.503.777-2.503.148-.747.266-1.563.356-2.395q1.106.48 2.245.887a10.3 10.3 0 0 0 2.549.583h.013c.697.032 1.255-.102 1.504-.529l-.211-.123.212.12c.248-.433.087-.986-.292-1.572l-.002-.005-.004-.005a10.2 10.2 0 0 0-1.776-1.916A35 35 0 0 0 16.691 12q.975-.72 1.897-1.505l.003-.002c.763-.67 1.388-1.33 1.777-1.92l.001-.002c.378-.587.54-1.14.292-1.573l-.001-.002c-.25-.427-.814-.562-1.505-.53h-.012a10.3 10.3 0 0 0-2.55.584q-1.137.406-2.243.886M12 2.49c-.197 0-.476.17-.78.77-.288.573-.537 1.397-.733 2.378a28 28 0 0 0-.365 2.508q.952.432 1.879.919a35 35 0 0 1 1.88-.919c-.09-.873-.212-1.73-.368-2.507-.203-.978-.445-1.806-.74-2.377V3.26c-.305-.601-.578-.77-.773-.77m1.93 6.171q-.712.325-1.408.684.385.21.764.43.377.217.748.442a39 39 0 0 0-.105-1.556m-2.452.684a35 35 0 0 0-1.406-.683c-.046.521-.08 1.044-.106 1.556q.372-.226.747-.442.38-.22.765-.43m-1.536 1.461q.503-.311 1.015-.606.516-.3 1.043-.581.525.281 1.041.58.514.296 1.017.608a37 37 0 0 1 0 2.39q-.503.31-1.015.605-.517.3-1.043.581a35 35 0 0 1-1.042-.58q-.515-.296-1.02-.61a36 36 0 0 1 .004-2.388m-.48-.277c.028-.678.073-1.38.138-2.079q-1.16-.51-2.357-.937c-.945-.32-1.78-.522-2.422-.557-.676-.03-.96.12-1.058.287-.098.173-.086.497.276 1.06a9.7 9.7 0 0 0 1.688 1.82h.002a35 35 0 0 0 1.995 1.576 35 35 0 0 1 1.739-1.17M8.143 12q.641-.454 1.302-.88-.011.452-.011.88-.002.439.008.878A35 35 0 0 1 8.143 12m-.418.302a35 35 0 0 0-1.993 1.574c-.747.656-1.336 1.282-1.69 1.82-.363.563-.376.89-.277 1.062.098.167.386.317 1.052.288a9.8 9.8 0 0 0 2.423-.556h.003a35 35 0 0 0 2.358-.938 35 35 0 0 1-.142-2.083 35 35 0 0 1-1.734-1.167m2.399 3.552q.135 1.26.364 2.51c.203.978.445 1.805.739 2.375l.001.002c.304.602.578.77.773.77s.476-.17.779-.77c.288-.573.537-1.396.733-2.378a28 28 0 0 0 .366-2.509A35 35 0 0 1 12 14.936q-.925.487-1.877.918m1.355-1.198q-.696.358-1.407.684a35 35 0 0 1-.11-1.56q.375.228.752.445.38.22.765.431m1.044 0q.695.357 1.405.683c.046-.52.082-1.043.106-1.555q-.37.225-.746.44-.38.221-.765.432m2.015-1.184a40 40 0 0 1-.138 2.08q1.162.51 2.359.937l.002.001a9.8 9.8 0 0 0 2.423.556c.672.029.955-.121 1.053-.288.098-.173.086-.497-.276-1.06a9.7 9.7 0 0 0-1.688-1.82h-.002a35 35 0 0 0-1.994-1.576q-.852.611-1.74 1.17m1.74-1.774a36 36 0 0 0-1.74-1.17 40 40 0 0 0-.136-2.08q1.161-.51 2.357-.937l.003-.001a9.8 9.8 0 0 1 2.422-.555c.667-.03.955.12 1.053.287.1.173.086.499-.278 1.063-.353.537-.941 1.164-1.689 1.82a35 35 0 0 1-1.992 1.573m-.42.302q-.64.455-1.301.88a35 35 0 0 0 0-1.76q.66.426 1.301.88" clip-rule="evenodd"/>
    <path fill="#F0F3FA" d="M12 13.238a1.239 1.239 0 1 0 0-2.477 1.239 1.239 0 0 0 0 2.477m-7.123-2.477a.929.929 0 1 0 0-1.858.929.929 0 0 0 0 1.858m5.574 8.671a.93.93 0 1 0 .06-1.859.93.93 0 0 0-.06 1.86m6.194-11.149a.93.93 0 1 0 0-1.858.93.93 0 0 0 0 1.858"/>
</svg>
